flaticon/dialogue/phone-4.svg

<svg xmlns="http://www.w3.org/2000/svg" width="32" height="32" viewBox="0 0 24 24">
    <path d="M 23.601562 15.195312 C 22.125 15.195312 20.921875 13.996094 20.921875 12.519531 C 20.921875 12.296875 20.742188 12.121094 20.523438 12.121094 C 20.300781 12.121094 20.121094 12.296875 20.121094 12.519531 C 20.121094 14.4375 21.683594 15.996094 23.601562 15.996094 C 23.820312 15.996094 24 15.816406 24 15.597656 C 24 15.375 23.820312 15.195312 23.601562 15.195312 Z M 23.601562 15.195312"/>
    <path d="M23.300781 14.257812C23.523438 14.257812 23.703125 14.082031 23.703125 13.859375 23.703125 13.636719 23.523438 13.460938 23.300781 13.460938 22.945312 13.460938 22.660156 13.171875 22.660156 12.816406 22.660156 12.597656 22.480469 12.417969 22.257812 12.417969 22.039062 12.417969 21.859375 12.597656 21.859375 12.816406 21.859375 13.613281 22.507812 14.257812 23.300781 14.257812zM8 1.195312C9.476562 1.195312 10.675781 2.398438 10.675781 3.875 10.675781 4.09375 10.855469 4.273438 11.078125 4.273438 11.296875 4.273438 11.476562 4.09375 11.476562 3.875 11.476562 1.957031 9.917969.398438 8 .398438 7.78125.398438 7.601562.574219 7.601562.796875 7.601562 1.019531 7.78125 1.195312 8 1.195312zM8 1.195312"/>
    <path d="M7.898438 2.535156C7.898438 2.753906 8.078125 2.933594 8.300781 2.933594 8.652344 2.933594 8.941406 3.222656 8.941406 3.574219 8.941406 3.796875 9.121094 3.976562 9.339844 3.976562 9.5625 3.976562 9.742188 3.796875 9.742188 3.574219 9.742188 2.78125 9.09375 2.132812 8.300781 2.132812 8.078125 2.132812 7.898438 2.3125 7.898438 2.535156zM17.628906 15.15625C17.121094 14.863281 16.589844 14.773438 16.140625 14.898438 15.804688 14.992188 15.527344 15.203125 15.34375 15.515625 14.933594 16.003906 14.429688 16.574219 14.304688 16.660156 13.359375 17.304688 12.605469 17.226562 11.789062 16.410156L7.195312 11.816406C6.375 11 6.300781 10.246094 6.941406 9.300781 7.03125 9.175781 7.601562 8.671875 8.089844 8.261719 8.402344 8.074219 8.613281 7.800781 8.707031 7.464844 8.832031 7.015625 8.742188 6.484375 8.449219 5.972656 8.378906 5.851562 6.730469 3.0625 5.214844 2.261719 4.445312 1.851562 3.511719 1.992188 2.894531 2.609375L1.878906 3.625C.273438 5.230469-.308594 7.046875.152344 9.03125.535156 10.683594 1.648438 12.441406 3.464844 14.257812L9.347656 20.140625C11.652344 22.445312 13.847656 23.601562 15.863281 23.601562 17.34375 23.601562 18.726562 22.976562 19.980469 21.726562L20.996094 20.710938C21.613281 20.09375 21.753906 19.164062 21.34375 18.390625 20.542969 16.875 17.753906 15.226562 17.628906 15.15625zM20.429688 20.144531L19.414062 21.160156C16.789062 23.785156 13.589844 23.253906 9.910156 19.574219L4.03125 13.691406C2.320312 11.984375 1.277344 10.355469.929688 8.851562.53125 7.132812 1.027344 5.605469 2.445312 4.191406L3.460938 3.175781C3.6875 2.949219 3.984375 2.828125 4.289062 2.828125 4.476562 2.828125 4.664062 2.875 4.839844 2.96875 6.15625 3.664062 7.742188 6.347656 7.753906 6.371094 7.933594 6.6875 8.003906 7.015625 7.9375 7.25 7.898438 7.394531 7.808594 7.503906 7.664062 7.585938L7.605469 7.625C7.261719 7.910156 6.449219 8.601562 6.28125 8.851562 6.035156 9.210938 5.875 9.566406 5.789062 9.917969 5.503906 9.347656 5.273438 8.691406 5.199219 7.964844 5.175781 7.746094 4.980469 7.589844 4.757812 7.605469 4.539062 7.628906 4.378906 7.828125 4.402344 8.046875 4.691406 10.828125 6.855469 12.636719 6.945312 12.714844 6.957031 12.722656 6.96875 12.726562 6.976562 12.730469L11.222656 16.976562C11.242188 16.996094 11.257812 17.011719 11.277344 17.027344 11.292969 17.050781 11.300781 17.070312 11.320312 17.089844 11.394531 17.164062 13.199219 18.917969 15.957031 19.203125 15.972656 19.203125 15.988281 19.207031 16 19.207031 16.203125 19.207031 16.375 19.050781 16.398438 18.847656 16.421875 18.628906 16.261719 18.429688 16.042969 18.40625 15.195312 18.320312 14.445312 18.070312 13.820312 17.785156 14.128906 17.691406 14.4375 17.539062 14.753906 17.324219 15.007812 17.15625 15.695312 16.34375 15.980469 16.003906L16.019531 15.941406C16.101562 15.796875 16.210938 15.710938 16.355469 15.667969 16.589844 15.605469 16.917969 15.671875 17.230469 15.847656 17.257812 15.863281 19.941406 17.449219 20.636719 18.765625 20.878906 19.222656 20.796875 19.777344 20.429688 20.144531zM20.429688 20.144531"/>
</svg>

<svg xmlns="http://www.w3.org/2000/svg" width="32" height="32" viewBox="0 0 24 24">
    <path d="M23.602 15.195a2.68 2.68 0 0 1-2.68-2.675.398.398 0 0 0-.399-.399.398.398 0 0 0-.402.399 3.483 3.483 0 0 0 3.48 3.476.4.4 0 0 0 0-.8zm0 0"/>
    <path d="M23.3 14.258a.398.398 0 1 0 0-.797.642.642 0 0 1-.64-.645.401.401 0 0 0-.8 0c0 .797.648 1.442 1.44 1.442zm0 0M8 1.195a2.68 2.68 0 0 1 2.676 2.68.401.401 0 0 0 .8 0A3.48 3.48 0 0 0 8 .398a.398.398 0 1 0 0 .797zm0 0"/>
    <path d="M7.898 2.535c0 .219.18.399.403.399.351 0 .64.289.64.64a.401.401 0 1 0 .801 0c0-.793-.648-1.441-1.441-1.441a.402.402 0 0 0-.403.402zm0 0M17.629 15.156c-.508-.293-1.04-.383-1.488-.258a1.322 1.322 0 0 0-.797.618c-.41.488-.914 1.058-1.04 1.144-.945.645-1.699.567-2.515-.25l-4.594-4.594c-.82-.816-.894-1.57-.254-2.515.09-.125.66-.63 1.149-1.04.312-.187.523-.46.617-.796.125-.45.035-.98-.258-1.492-.07-.121-1.719-2.91-3.234-3.711a1.961 1.961 0 0 0-2.32.347L1.879 3.625C.273 5.23-.31 7.047.152 9.031c.383 1.653 1.496 3.41 3.313 5.227l5.883 5.883c2.304 2.304 4.5 3.46 6.515 3.46 1.48 0 2.864-.624 4.117-1.874l1.016-1.016a1.96 1.96 0 0 0 .348-2.32c-.801-1.516-3.59-3.164-3.715-3.235zm2.8 4.989l-1.015 1.015c-2.625 2.625-5.824 2.094-9.504-1.586l-5.879-5.883c-1.71-1.707-2.754-3.336-3.101-4.84-.399-1.718.097-3.246 1.515-4.66l1.016-1.015c.227-.227.523-.348.828-.348.188 0 .375.047.55.14 1.317.696 2.903 3.38 2.915 3.403.18.316.25.645.184.879a.538.538 0 0 1-.274.336l-.059.039c-.343.285-1.156.977-1.324 1.227-.246.359-.406.714-.492 1.066a5.656 5.656 0 0 1-.59-1.953.409.409 0 0 0-.441-.36.402.402 0 0 0-.356.442c.29 2.781 2.453 4.59 2.543 4.668.012.008.024.012.032.015l4.246 4.247c.02.02.035.035.054.05.016.024.024.043.043.063.075.074 1.88 1.828 4.637 2.113.016 0 .031.004.043.004a.402.402 0 0 0 .043-.8 7.079 7.079 0 0 1-2.223-.622 3.45 3.45 0 0 0 .934-.46c.254-.169.941-.981 1.226-1.321l.04-.063a.55.55 0 0 1 .335-.273c.235-.063.563.004.875.18.028.015 2.711 1.601 3.407 2.918.242.457.16 1.011-.207 1.379zm0 0"/>
</svg>
